X: 8480
T: Craskie
R: reel
M: 4/4
K: Gmajor
D2 E2 G2|A6 G2|A2 d2 AG E2|{A}B6 A2|B2 d2 AG E2|
{G}A6 G2|A2 B2 AG E2|G8-|G2:|
G2 B2 d2|g8|g2 f2 d2 B2|d8|e2 d2 B2 A2|
A6 G2|A2 d2 AG E2|{A}B8-|B2 G2 AB d2|
g8|g2 f2 d2 B2|d8|e2 d2 B2 A2|
A6 G2|A2 B2 AG E2|G8-|G2||

